X:34
T:Jean MacNeil
R:reel
C:Robert Stubbert
O:Cape Breton Island
S:http://www.cranfordpub.com
D:Music All Around, 2003
Z:psc, (re-formatted,updated 9/19/04)
N:http://www.cranfordpub.com/stubbert
H:                                                        copyrights Stubbert Music, SOCAN
L:1/8
Q:333
M:C|
K:E
z|B2 GB E2 GB|g2 eg fgec|B2 GB E2 GB|bgeg fgec|
B2 GB E2 GB|g2 eg fgec|Bcef gebg|fgef gee:|
|:g|b2 ge B2 ge|f/g/a ge fece|b2 ge B2 ge|fege fgeg|
b2 ge B2 ge|f/g/a ge fece|Bcef gebg|fgef gee:|
